X:1
T: John White's Mother
C:
R:Jig
Q:180
K:D
M:6/8
L:1/16
d2|D2E2D2 A2F2A2|d2c2B2 A2F2D2|B2E2E2 E2F2A2|B2E2E2 E4F2|D2E2D2 F2D2F2|A2B2c2 d2A2F2|A2D2D2 D2E2D2|A2F2D2 D4d2|
D2E2D2 A2F2A2|d2c2B2 A2F2D2|B2E2E2 E2F2A2|B2E2E2 E4F2|D2E2D2 F2D2F2|A2B2c2 d2A2F2|A2D2D2 D2E2D2|A2F2D2 D4A2|
d2e2f2 e2d2B2|A2F2A2 d4c2|B2e2e2 gfe2d2|B2e2e2 e4A2|d2e2f2 e2d2B2|d2A2G2 F2G2E2|D2F2A2 d2e2g2|f2d2d2 d4A2|
d2e2f2 e2d2B2|A2F2A2 d4c2|B2e2e2 gfe2d2|B2e2e2 e4A2|d2e2f2 e2d2B2|d2A2G2 F2G2E2|D2F2A2 d2e2g2|f2d2d2 d4||
